X: 41218
T: Trondheimsfjorden
R: reel
M: 4/4
K: Amajor
Acea gaea|gfed cABc|d3f ecAc|BAGF EFGB|
Acea gaea|gfed cABc|d3f ecab|c'2 a2 a4:|
|:fdAg eB(a2|a)agf edcB|c3f ef(g2|g)gfg abag|
[1 fdAg eB(a2|a)agf edcB|c3f efga|bagf agfe:|
[2 fdAg eB(a2|a)agf edcB|ceab c'3d'|c'2 a2 a4||

